!!!OTL-incipit: EIN SCHIFFLEIN SAH ICH FAHREN
!!!ARE: Europa, Mitteleuropa, Deutschland, Westfalen; Pommern
!!!SCT: Z0080
!!!TXL: @@DE
!!!YEM: Copyright 1995, estate of Helmut Schaffrath.
**kern	**text
*ICvox	*
*M4/4	*
*met(c)	*
*k[f#]	*
*G:	*
!LO:TX:a:t=Weſtphäliſch und Pommerſch.	!
{4d	Ein
=1	=1
4.g	Schifflein
8g	.
4g	ſah
4a	ich
=2	=2
2b/	fah-
8g	-ren,
8r}	.
{8bL	Capi-
8ccJ	.
=3	=3
4dd	-tain
4dd	und
8ddL	Lieu-
8ccJ	.
4cc	-te-
=4	=4
2b/	-nant,
4r}	.
{4b/	da-
=5	=5
4dd	-rin-
4dd	-nen
4dd	war'n
8eeL	ge-
8ddJ	.
=6	=6
8ddL	-la-
8ccJ	.
4cc	-den
4r}	.
{8ddL	drei
8ccJ	.
=7	=7
8bL	brave
8bJ	.
8bL	Compag-
8bJ	.
4b	-nien
8aL	Sol-
8gJ	.
=8	=8
8bL	-da-
8aJ	.
4a	-ten,
4r}	.
{8ddL	Capi-
8ccJ	.
=9	=9
4b/	-tain,
4g	Lieut-
4g	-nant,
8dd	Fähnde-
8cc	.
=10	=10
4b/	-rich,
4g	Sergeant,
4g}	.
{8dd	nimm
8cc	das
=11	=11
8b/	Mädel,
8a	.
8b/	nimm
8cc/	das
8b/	Mädel,
8a	.
8b/	nimm
8cc/	das
=12	=12
8b/	Mädel
8a	.
8b	bei
8cc	der
4dd}	Hand,
{4ee	Sol-
=13	=13
2dd	-da-
4cc	-ten,
8cc	Kame-
8cc	.
=14	=14
2b/	-ra-
4a}	-den,
{4a	Sol-
=15	=15
4b/	-da-
4a	.
4b/	-ten,
8cc	Kame-
8cc	.
=16	=16
2dd	-ra-
4g}	-den.
==	==
!!!AGN: Sagen - Lied, Romanze, Soldaten - Lied
!!!ONB: ESAC (Essen Associative Code) Database: ZUCCAL
!!!AMT: simple quadruple
!!!AIN: vox
!!!EED: Helmut Schaffrath
!!!EEV: 1.0
!!!GTL: I. Ernste Romanzen und Sagen.
!!!URL-scan: https://www.digitale-sammlungen.de/de/view/bsb11160571?page=162
!!!ENC: Anna Maria Matuszewska
!!!EEV: 2025/01/27
*-	*-
